client/public/assets/icons/utility/new.svg

<?xml version="1.0"?><svg xmlns="http://www.w3.org/2000/svg" width="52" height="52" viewBox="0 0 52 52"><path fill="#fff" d="m43 9c-9.4-9.3-24.6-9.3-34 0-9.3 9.4-9.3 24.6 0 34 9.4 9.4 24.6 9.4 33.9 0 9.4-9.4 9.4-24.6 0.1-34z m-1 19c0 0.6-0.4 1-1 1h-11c-0.5 0-1 0.5-1 1v11c0 0.5-0.5 1-1 1h-4c-0.6 0-1-0.4-1-1v-11c0-0.6-0.4-1-1-1h-11c-0.6 0-1-0.4-1-1v-4c0-0.5 0.5-1 1-1h11c0.6 0 1-0.4 1-1v-11c0-0.5 0.5-1 1-1h4c0.5 0 1 0.4 1 1v11c0 0.6 0.4 1 1 1h11c0.5 0 1 0.5 1 1v4z"></path></svg>

<?xml version="1.0" encoding="utf-8"?>
<!-- Generator: Adobe Illustrator 18.1.1, SVG Export Plug-In . SVG Version: 6.00 Build 0)  -->
<svg version="1.1" id="Layer_1" xmlns="http://www.w3.org/2000/svg" xmlns:xlink="http://www.w3.org/1999/xlink" x="0px" y="0px"
	 width="52px" height="52px" viewBox="0 0 52 52" enable-background="new 0 0 52 52" xml:space="preserve">
<path fill="#FFFFFF" d="M43,9C33.6-0.3,18.4-0.3,9,9c-9.3,9.4-9.3,24.6,0,34c9.4,9.4,24.6,9.4,33.9,0C52.3,33.6,52.3,18.4,43,9z
	 M42,28c0,0.6-0.4,1-1,1H30c-0.5,0-1,0.5-1,1v11c0,0.5-0.5,1-1,1h-4c-0.6,0-1-0.4-1-1V30c0-0.6-0.4-1-1-1H11c-0.6,0-1-0.4-1-1v-4
	c0-0.5,0.5-1,1-1h11c0.6,0,1-0.4,1-1V11c0-0.5,0.5-1,1-1h4c0.5,0,1,0.4,1,1v11c0,0.6,0.4,1,1,1h11c0.5,0,1,0.5,1,1V28z"/>
</svg>
